; generated by Slic3r 0.9.9 on 2015-04-19 at 19:28:33

; layer_height = .1
; perimeters = 3
; top_solid_layers = 3
; bottom_solid_layers = 3
; fill_density = .2
; perimeter_speed = 40
; infill_speed = 65
; travel_speed = 70
; nozzle_diameter = 0.4
; filament_diameter = 1.75
; extrusion_multiplier = 1
; perimeters extrusion width = 0.68mm
; infill extrusion width = 1.28mm
; solid infill extrusion width = 0.68mm
; top infill extrusion width = 0.68mm
; first layer extrusion width = 0.60mm

G21 ; set units to millimeters
M107
M104 S208 ; set temperature
G28 X0 Y0 Z0
G29
M109 S208 ; wait for temperature to be reached
G90 ; use absolute coordinates
G92 E0
M82 ; use absolute distances for extrusion
G1 F1800.000 E-1.00000
G92 E0
G1 Z0.300 F4200.000
G1 X63.151 Y38.843
G1 F1800.000 E1.00000
G1 X63.441 Y38.543 F1800.000 E1.02899
G1 X64.071 Y37.953 E1.08896
G1 X64.591 Y37.513 E1.13629
G1 X65.271 Y37.003 E1.19535
G1 X66.001 Y36.513 E1.25644
G1 X66.621 Y36.143 E1.30661
G1 X67.691 Y35.583 E1.39052
G1 X68.301 Y35.313 E1.43687
G1 X69.801 Y34.743 E1.54837
G1 X70.781 Y34.453 E1.61938
G1 X71.771 Y34.223 E1.69000
G1 X72.801 Y34.053 E1.76253
G1 X73.591 Y33.983 E1.81764
G1 X74.891 Y33.943 E1.90801
G1 X75.451 Y33.963 E1.94694
G1 X76.081 Y34.013 E1.99085
G1 X77.291 Y34.183 E2.07575
G1 X96.141 Y38.173 E3.41451
G1 X96.951 Y38.393 E3.47283
G1 X97.411 Y38.543 E3.50644
G1 X97.901 Y38.713 E3.54248
G1 X98.571 Y38.983 E3.59267
G1 X99.501 Y39.423 E3.66416
G1 X100.231 Y39.813 E3.72166
G1 X101.001 Y40.283 E3.78434
G1 X101.831 Y40.863 E3.85470
G1 X102.401 Y41.313 E3.90516
G1 X103.161 Y41.993 E3.97602
G1 X103.781 Y42.643 E4.03843
G1 X104.411 Y43.393 E4.10649
G1 X104.631 Y43.683 E4.13178
G1 X105.101 Y44.373 E4.18979
G1 X105.281 Y44.673 E4.21410
G1 X114.751 Y61.203 E5.53777
G1 X115.341 Y62.333 E5.62634
G1 X115.791 Y63.393 E5.70635
G1 X116.031 Y64.083 E5.75711
G1 X116.291 Y65.043 E5.82622
G1 X116.481 Y66.073 E5.89899
G1 X116.571 Y67.153 E5.97429
G1 X116.581 Y67.753 E6.01599
G1 X116.541 Y68.713 E6.08275
G1 X116.491 Y69.173 E6.11490
G1 X116.361 Y69.973 E6.17121
G1 X116.221 Y70.603 E6.21605
G1 X115.911 Y71.763 E6.29948
G1 X107.091 Y100.143 E8.36442
G1 X107.021 Y100.363 E8.38046
G1 X106.641 Y101.323 E8.45219
G1 X106.481 Y101.663 E8.47830
G1 X105.831 Y102.783 E8.56828
G1 X105.531 Y103.213 E8.60471
G1 X104.881 Y104.023 E8.67687
G1 X104.521 Y104.413 E8.71375
G1 X103.821 Y105.093 E8.78156
G1 X102.941 Y105.813 E8.86056
G1 X102.461 Y106.163 E8.90184
G1 X101.951 Y106.503 E8.94442
G1 X100.901 Y107.133 E9.02950
G1 X100.381 Y107.403 E9.07022
G1 X99.371 Y107.853 E9.14704
G1 X98.351 Y108.233 E9.22267
G1 X97.801 Y108.413 E9.26288
G1 X96.781 Y108.673 E9.33602
G1 X95.691 Y108.893 E9.41328
G1 X95.251 Y108.973 E9.44436
G1 X94.051 Y109.143 E9.52857
G1 X60.451 Y113.313 E11.88107
G1 X57.111 Y113.673 E12.11449
G1 X54.781 Y113.883 E12.27704
G1 X53.031 Y114.003 E12.39892
G1 X51.501 Y114.053 E12.50528
G1 X50.281 Y114.053 E12.59005
G1 X48.411 Y113.993 E12.72005
G1 X46.521 Y113.843 E12.85178
G1 X45.341 Y113.683 E12.93452
G1 X44.751 Y113.583 E12.97610
G1 X44.011 Y113.423 E13.02870
G1 X43.271 Y113.223 E13.08197
G1 X42.651 Y113.023 E13.12723
G1 X41.531 Y112.563 E13.21136
G1 X41.001 Y112.293 E13.25269
G1 X40.221 Y111.833 E13.31561
G1 X39.371 Y111.223 E13.38830
G1 X38.631 Y110.583 E13.45628
G1 X37.991 Y109.943 E13.51917
G1 X37.691 Y109.613 E13.55015
G1 X37.261 Y109.093 E13.59704
G1 X36.851 Y108.553 E13.64415
G1 X36.001 Y107.293 E13.74975
G1 X35.471 Y106.403 E13.82173
G1 X34.581 Y104.813 E13.94833
G1 X34.291 Y104.253 E13.99215
G1 X33.761 Y103.093 E14.08076
G1 X33.141 Y101.653 E14.18970
G1 X32.421 Y99.813 E14.32698
G1 X32.041 Y98.743 E14.40588
G1 X31.611 Y97.403 E14.50366
G1 X30.961 Y95.043 E14.67375
G1 X30.411 Y92.743 E14.83806
G1 X30.051 Y91.123 E14.95337
G1 X29.731 Y89.323 E15.08040
G1 X29.561 Y88.003 E15.17287
G1 X29.451 Y86.593 E15.27114
G1 X29.411 Y85.053 E15.37817
G1 X29.451 Y83.573 E15.48105
G1 X29.481 Y83.083 E15.51516
G1 X29.541 Y82.543 E15.55291
G1 X29.751 Y81.033 E15.65883
G1 X29.921 Y80.203 E15.71770
G1 X30.071 Y79.613 E15.76000
G1 X30.351 Y78.643 E15.83015
G1 X31.021 Y76.793 E15.96686
G1 X31.411 Y75.893 E16.03501
G1 X31.791 Y75.093 E16.09655
G1 X32.461 Y73.773 E16.19941
G1 X33.301 Y72.303 E16.31704
G1 X34.201 Y70.873 E16.43444
G1 X35.431 Y69.093 E16.58478
G1 X36.561 Y67.593 E16.71527
G1 X38.161 Y65.683 E16.88839
G1 X39.331 Y64.403 E17.00888
G1 X63.094 Y38.904 E19.43068
G1 X63.561 Y39.223 F4200.000
G1 X64.431 Y38.383 F1800.000 E19.51471
G1 X64.951 Y37.943 E19.56204
G1 X65.591 Y37.463 E19.61762
G1 X66.321 Y36.973 E19.67871
G1 X66.881 Y36.633 E19.72423
G1 X67.341 Y36.383 E19.76061
G1 X68.501 Y35.823 E19.85011
G1 X69.361 Y35.483 E19.91436
G1 X69.961 Y35.283 E19.95831
G1 X70.941 Y34.993 E20.02932
G1 X71.891 Y34.763 E20.09723
G1 X72.881 Y34.603 E20.16691
G1 X73.621 Y34.533 E20.21856
G1 X74.321 Y34.503 E20.26724
G1 X74.871 Y34.503 E20.30546
G1 X76.011 Y34.563 E20.38478
G1 X76.631 Y34.643 E20.42821
G1 X77.571 Y34.803 E20.49446
G1 X95.191 Y38.543 E21.74601
G1 X96.031 Y38.723 E21.80570
G1 X96.781 Y38.923 E21.85964
G1 X97.691 Y39.233 E21.92643
G1 X98.361 Y39.503 E21.97662
G1 X99.561 Y40.083 E22.06923
G1 X100.391 Y40.553 E22.13550
G1 X101.511 Y41.323 E22.22994
G1 X102.041 Y41.733 E22.27650
G1 X102.781 Y42.403 E22.34586
G1 X103.361 Y43.003 E22.40384
G1 X103.711 Y43.413 E22.44130
G1 X104.191 Y44.023 E22.49523
G1 X104.621 Y44.663 E22.54880
G1 X104.871 Y45.083 E22.58277
G1 X114.171 Y61.303 E23.88187
G1 X114.831 Y62.563 E23.98070
G1 X115.261 Y63.573 E24.05697
G1 X115.501 Y64.263 E24.10773
G1 X115.741 Y65.153 E24.17178
G1 X115.861 Y65.723 E24.21226
G1 X115.931 Y66.163 E24.24321
G1 X116.011 Y67.163 E24.31292
G1 X116.021 Y67.763 E24.35461
G1 X115.981 Y68.653 E24.41651
G1 X115.931 Y69.113 E24.44866
G1 X115.811 Y69.873 E24.50212
G1 X115.681 Y70.463 E24.54410
G1 X115.371 Y71.593 E24.62552
G1 X106.551 Y99.973 E26.69045
G1 X106.141 Y101.083 E26.77267
G1 X105.981 Y101.423 E26.79878
G1 X105.371 Y102.463 E26.88255
G1 X105.071 Y102.893 E26.91898
G1 X104.471 Y103.653 E26.98626
G1 X104.111 Y104.043 E27.02314
G1 X103.451 Y104.683 E27.08702
G1 X102.601 Y105.373 E27.16309
G1 X102.151 Y105.703 E27.20186
G1 X101.641 Y106.043 E27.24445
G1 X100.641 Y106.633 E27.32512
G1 X99.661 Y107.123 E27.40125
G1 X99.151 Y107.343 E27.43984
G1 X98.161 Y107.713 E27.51328
G1 X97.651 Y107.873 E27.55042
G1 X96.671 Y108.123 E27.62069
G1 X95.581 Y108.343 E27.69795
G1 X93.851 Y108.603 E27.81951
G1 X60.501 Y112.743 E30.15452
G1 X57.051 Y113.113 E30.39561
G1 X54.581 Y113.343 E30.56797
G1 X53.011 Y113.443 E30.67728
G1 X51.481 Y113.493 E30.78364
G1 X50.301 Y113.493 E30.86563
G1 X48.151 Y113.423 E31.01510
G1 X47.041 Y113.343 E31.09242
G1 X45.411 Y113.133 E31.20661
G1 X44.131 Y112.873 E31.29737
G1 X43.451 Y112.693 E31.34624
G1 X42.831 Y112.493 E31.39151
G1 X41.781 Y112.063 E31.47034
G1 X41.251 Y111.793 E31.51167
G1 X40.531 Y111.373 E31.56959
G1 X39.721 Y110.793 E31.63881
G1 X39.021 Y110.183 E31.70332
G1 X38.411 Y109.573 E31.76326
G1 X37.701 Y108.753 E31.83863
G1 X37.291 Y108.213 E31.88574
G1 X36.481 Y107.003 E31.98691
G1 X35.851 Y105.953 E32.07199
G1 X35.061 Y104.543 E32.18429
G1 X34.801 Y104.023 E32.22468
G1 X34.201 Y102.713 E32.32480
G1 X33.561 Y101.213 E32.43811
G1 X33.021 Y99.833 E32.54108
G1 X32.491 Y98.333 E32.65161
G1 X32.141 Y97.233 E32.73182
G1 X31.441 Y94.663 E32.91689
G1 X30.981 Y92.723 E33.05543
G1 X30.601 Y91.003 E33.17782
G1 X30.281 Y89.253 E33.30143
G1 X30.111 Y87.933 E33.39390
G1 X30.001 Y86.553 E33.49009
G1 X29.971 Y84.663 E33.62143
G1 X30.041 Y83.123 E33.72854
G1 X30.221 Y81.633 E33.83282
G1 X30.301 Y81.143 E33.86732
G1 X30.471 Y80.313 E33.92619
G1 X30.601 Y79.773 E33.96478
G1 X30.881 Y78.803 E34.03493
G1 X31.531 Y77.013 E34.16725
G1 X31.921 Y76.113 E34.23540
G1 X32.391 Y75.123 E34.31155
G1 X33.121 Y73.723 E34.42125
G1 X33.781 Y72.583 E34.51278
G1 X34.671 Y71.173 E34.62863
G1 X35.881 Y69.433 E34.77589
G1 X37.011 Y67.933 E34.90638
G1 X37.231 Y67.643 E34.93167
G1 X38.361 Y66.293 E35.05399
G1 X39.741 Y64.783 E35.19612
G1 X63.504 Y39.284 E37.61792
G1 X63.961 Y39.603 F4200.000
G1 X64.791 Y38.803 F1800.000 E37.69802
G1 X65.311 Y38.363 E37.74535
G1 X65.901 Y37.933 E37.79608
G1 X66.631 Y37.443 E37.85717
G1 X67.151 Y37.123 E37.89959
G1 X67.611 Y36.873 E37.93597
G1 X68.711 Y36.343 E38.02081
G1 X69.571 Y36.003 E38.08506
G1 X70.121 Y35.813 E38.12549
G1 X71.101 Y35.523 E38.19650
G1 X72.011 Y35.313 E38.26139
G1 X72.961 Y35.153 E38.32833
G1 X73.641 Y35.093 E38.37576
G1 X74.341 Y35.063 E38.42444
G1 X74.851 Y35.063 E38.45988
G1 X75.951 Y35.123 E38.53642
G1 X77.111 Y35.283 E38.61779
G1 X95.911 Y39.263 E39.95300
G1 X96.601 Y39.453 E40.00273
G1 X97.061 Y39.603 E40.03635
G1 X97.481 Y39.753 E40.06733
G1 X98.581 Y40.213 E40.15018
G1 X99.291 Y40.563 E40.20518
G1 X100.081 Y41.023 E40.26870
G1 X101.181 Y41.773 E40.36120
G1 X101.671 Y42.153 E40.40429
G1 X102.401 Y42.813 E40.47266
G1 X102.941 Y43.363 E40.52622
G1 X103.291 Y43.773 E40.56368
G1 X103.741 Y44.363 E40.61523
G1 X104.141 Y44.953 E40.66476
G1 X104.391 Y45.363 E40.69813
G1 X113.691 Y61.583 E41.99723
G1 X114.321 Y62.793 E42.09202
G1 X114.731 Y63.763 E42.16519
G1 X114.971 Y64.453 E42.21595
G1 X115.201 Y65.263 E42.27446
G1 X115.381 Y66.253 E42.34437
G1 X115.461 Y67.173 E42.40854
G1 X115.471 Y67.773 E42.45023
G1 X115.431 Y68.593 E42.50727
G1 X115.381 Y69.053 E42.53942
G1 X115.261 Y69.773 E42.59014
G1 X115.141 Y70.313 E42.62858
G1 X114.841 Y71.433 E42.70914
G1 X106.021 Y99.813 E44.77407
G1 X105.631 Y100.843 E44.85060
G1 X105.471 Y101.183 E44.87671
G1 X104.921 Y102.143 E44.95358
G1 X104.621 Y102.573 E44.99001
G1 X104.061 Y103.273 E45.05230
G1 X103.701 Y103.663 E45.08918
G1 X103.071 Y104.273 E45.15011
G1 X102.251 Y104.943 E45.22368
G1 X101.331 Y105.583 E45.30155
G1 X100.381 Y106.143 E45.37817
G1 X99.441 Y106.613 E45.45120
G1 X98.931 Y106.833 E45.48979
G1 X97.981 Y107.193 E45.56038
G1 X97.511 Y107.333 E45.59445
G1 X96.561 Y107.583 E45.66271
G1 X95.471 Y107.803 E45.73997
G1 X93.781 Y108.053 E45.85867
G1 X60.431 Y112.193 E48.19368
G1 X56.991 Y112.563 E48.43408
G1 X54.681 Y112.773 E48.59525
G1 X52.991 Y112.883 E48.71292
G1 X51.251 Y112.943 E48.83389
G1 X50.531 Y112.943 E48.88392
G1 X48.191 Y112.863 E49.04660
G1 X47.081 Y112.783 E49.12393
G1 X45.491 Y112.583 E49.23527
G1 X44.981 Y112.493 E49.27126
G1 X44.241 Y112.333 E49.32386
G1 X43.621 Y112.163 E49.36853
G1 X43.001 Y111.963 E49.41379
G1 X42.031 Y111.563 E49.48670
G1 X41.501 Y111.293 E49.52803
G1 X40.841 Y110.913 E49.58094
G1 X40.081 Y110.363 E49.64613
G1 X39.411 Y109.783 E49.70770
G1 X38.821 Y109.193 E49.76567
G1 X38.151 Y108.423 E49.83659
G1 X37.741 Y107.883 E49.88370
G1 X37.151 Y107.023 E49.95617
G1 X36.341 Y105.683 E50.06496
G1 X35.551 Y104.273 E50.17726
G1 X34.721 Y102.493 E50.31372
G1 X34.081 Y101.013 E50.42576
G1 X33.541 Y99.633 E50.52872
G1 X33.091 Y98.363 E50.62234
G1 X32.591 Y96.803 E50.73617
G1 X32.031 Y94.753 E50.88382
G1 X31.521 Y92.593 E51.03803
G1 X31.141 Y90.883 E51.15974
G1 X30.841 Y89.183 E51.27969
G1 X30.671 Y87.863 E51.37216
G1 X30.541 Y86.163 E51.49063
G1 X30.521 Y85.033 E51.56915
G1 X30.601 Y83.153 E51.69990
G1 X30.641 Y82.693 E51.73198
G1 X30.771 Y81.713 E51.80067
G1 X31.021 Y80.423 E51.89197
G1 X31.141 Y79.923 E51.92770
G1 X31.421 Y78.953 E51.99784
G1 X31.901 Y77.593 E52.09805
G1 X32.431 Y76.333 E52.19303
G1 X32.791 Y75.563 E52.25209
G1 X33.611 Y73.993 E52.37516
G1 X34.271 Y72.853 E52.46669
G1 X35.301 Y71.223 E52.60066
G1 X36.321 Y69.763 E52.72441
G1 X37.451 Y68.263 E52.85489
G1 X38.791 Y66.653 E53.00044
G1 X40.191 Y65.113 E53.14505
G1 X63.904 Y39.664 E55.56194
G1 F1800.000 E54.56194
G92 E0
G1 X79.971 Y70.721 F4200.000
G1 F1800.000 E1.00000
G1 X80.457 Y70.539 F2700.000 E1.03608
G1 X80.753 Y70.477 E1.05708
G1 X81.012 Y70.453 E1.07514
G1 X81.451 Y70.471 E1.10566
G1 X82.135 Y70.601 E1.15407
G1 X82.673 Y71.180 E1.20899
G1 X82.925 Y71.406 E1.23249
G1 X83.260 Y71.613 E1.25987
G1 X83.521 Y71.714 E1.27934
G1 X83.889 Y71.781 E1.30529
G1 X84.565 Y71.689 E1.35270
G1 X84.939 Y71.664 E1.37874
G1 X85.342 Y71.670 E1.40673
G1 X85.617 Y71.702 E1.42596
G1 X85.912 Y71.768 E1.44702
G1 X86.210 Y71.881 E1.46915
G1 X86.405 Y71.983 E1.48442
G1 X86.738 Y72.225 E1.51300
G1 X86.899 Y72.383 E1.52872
G1 X87.056 Y72.577 E1.54602
G1 X87.203 Y72.815 E1.56548
G1 X87.314 Y73.077 E1.58523
G1 X87.400 Y73.454 E1.61212
G1 X87.407 Y73.849 E1.63955
G1 X87.326 Y74.256 E1.66842
G1 X87.159 Y74.638 E1.69738
G1 X87.050 Y74.813 E1.71167
G1 X86.792 Y75.124 E1.73977
G1 X86.490 Y75.392 E1.76781
G1 X86.060 Y75.708 E1.80490
G1 X85.423 Y75.787 E1.84948
G1 X84.873 Y75.903 E1.88857
G1 X84.423 Y76.038 E1.92123
G1 X83.476 Y76.372 E1.99096
G1 X82.988 Y76.484 E2.02579
G1 X82.694 Y76.506 E2.04623
G1 X82.448 Y76.489 E2.06334
G1 X82.074 Y76.400 E2.09008
G1 X81.822 Y76.287 E2.10926
G1 X81.546 Y76.108 E2.13212
G1 X81.366 Y75.946 E2.14895
G1 X81.206 Y75.765 E2.16575
G1 X80.773 Y75.130 E2.21916
G1 X80.640 Y74.975 E2.23331
G1 X79.759 Y74.274 E2.31157
G1 X79.350 Y73.890 E2.35054
G1 X79.204 Y73.718 E2.36623
G1 X79.054 Y73.497 E2.38477
G1 X78.942 Y73.284 E2.40151
G1 X78.861 Y73.074 E2.41714
G1 X78.803 Y72.848 E2.43336
G1 X78.777 Y72.636 E2.44821
G1 X78.777 Y72.401 E2.46451
G1 X78.831 Y72.057 E2.48873
G1 X78.935 Y71.762 E2.51043
G1 X79.080 Y71.492 E2.53171
G1 X79.264 Y71.248 E2.55298
G1 X79.554 Y70.977 E2.58053
G1 X79.897 Y70.760 E2.60874
G1 X80.127 Y71.268 F4200.000
G1 X80.490 Y71.110 F2700.000 E2.63627
G1 X80.835 Y71.028 E2.66087
G1 X81.144 Y71.008 E2.68245
G1 X81.505 Y71.046 E2.70765
G1 X81.849 Y71.113 E2.73200
G1 X82.280 Y71.575 E2.77592
G1 X82.582 Y71.844 E2.80400
G1 X82.848 Y72.026 E2.82640
G1 X83.020 Y72.116 E2.83989
G1 X83.358 Y72.247 E2.86510
G1 X83.653 Y72.317 E2.88614
G1 X83.864 Y72.337 E2.90086
G1 X84.620 Y72.243 E2.95380
G1 X84.953 Y72.221 E2.97699
G1 X85.305 Y72.227 E3.00144
G1 X85.752 Y72.303 E3.03299
G1 X85.981 Y72.389 E3.04995
G1 X86.246 Y72.545 E3.07129
G1 X86.486 Y72.759 E3.09366
G1 X86.706 Y73.071 E3.12021
G1 X86.787 Y73.261 E3.13450
G1 X86.846 Y73.523 E3.15320
G1 X86.852 Y73.800 E3.17244
G1 X86.794 Y74.088 E3.19287
G1 X86.741 Y74.229 E3.20334
G1 X86.591 Y74.495 E3.22452
G1 X86.392 Y74.735 E3.24621
G1 X86.147 Y74.953 E3.26900
G1 X85.848 Y75.172 E3.29474
G1 X85.221 Y75.257 E3.33873
G1 X84.732 Y75.364 E3.37352
G1 X84.245 Y75.511 E3.40888
G1 X83.316 Y75.838 E3.47728
G1 X82.916 Y75.931 E3.50584
G1 X82.693 Y75.948 E3.52133
G1 X82.518 Y75.936 E3.53358
G1 X82.374 Y75.909 E3.54370
G1 X82.143 Y75.826 E3.56079
G1 X81.894 Y75.671 E3.58114
G1 X81.700 Y75.484 E3.59986
G1 X81.524 Y75.258 E3.61978
G1 X81.178 Y74.740 E3.66308
G1 X81.020 Y74.567 E3.67938
G1 X80.118 Y73.848 E3.75950
G1 X79.826 Y73.581 E3.78695
G1 X79.644 Y73.376 E3.80603
G1 X79.451 Y73.056 E3.83200
G1 X79.372 Y72.831 E3.84856
G1 X79.333 Y72.598 E3.86498
G1 X79.342 Y72.351 E3.88214
G1 X79.416 Y72.055 E3.90335
G1 X79.549 Y71.793 E3.92373
G1 X79.681 Y71.618 E3.93896
G1 X79.894 Y71.420 E3.95918
G1 X80.054 Y71.309 E3.97272
G1 X80.340 Y71.788 F4200.000
G1 X80.666 Y71.638 F2700.000 E3.99766
G1 X80.916 Y71.580 E4.01549
G1 X81.225 Y71.570 E4.03694
G1 X81.563 Y71.625 E4.06076
G1 X82.008 Y72.087 E4.10535
G1 X82.346 Y72.364 E4.13573
G1 X82.780 Y72.620 E4.17069
G1 X82.991 Y72.710 E4.18663
G1 X83.388 Y72.832 E4.21547
G1 X83.851 Y72.895 E4.24796
G1 X84.967 Y72.778 E4.32593
G1 X85.268 Y72.783 E4.34685
G1 X85.593 Y72.838 E4.36972
G1 X85.751 Y72.898 E4.38151
G1 X85.919 Y72.997 E4.39500
G1 X86.145 Y73.223 E4.41723
G1 X86.259 Y73.444 E4.43455
G1 X86.293 Y73.592 E4.44507
G1 X86.296 Y73.751 E4.45611
G1 X86.262 Y73.920 E4.46811
G1 X86.187 Y74.092 E4.48115
G1 X86.068 Y74.262 E4.49555
G1 X85.905 Y74.430 E4.51185
G1 X85.637 Y74.637 E4.53535
G1 X85.122 Y74.708 E4.57143
G1 X84.591 Y74.825 E4.60924
G1 X84.150 Y74.955 E4.64115
G1 X83.264 Y75.270 E4.70654
G1 X82.968 Y75.355 E4.72792
G1 X82.693 Y75.389 E4.74719
G1 X82.444 Y75.348 E4.76468
G1 X82.242 Y75.235 E4.78081
G1 X82.118 Y75.115 E4.79278
G1 X81.619 Y74.400 E4.85336
G1 X81.454 Y74.212 E4.87073
G1 X81.259 Y74.037 E4.88892
G1 X80.336 Y73.300 E4.97101
G1 X80.177 Y73.142 E4.98657
G1 X80.007 Y72.918 E5.00609
G1 X79.940 Y72.782 E5.01664
G1 X79.901 Y72.648 E5.02637
