; generated by Slic3r 0.9.9 on 2015-03-28 at 00:48:37

; layer_height = .1
; perimeters = 3
; top_solid_layers = 3
; bottom_solid_layers = 3
; fill_density = .2
; perimeter_speed = 40
; infill_speed = 60
; travel_speed = 70
; nozzle_diameter = 0.4
; filament_diameter = 1.75
; extrusion_multiplier = 1
; perimeters extrusion width = 0.68mm
; infill extrusion width = 1.28mm
; solid infill extrusion width = 0.68mm
; top infill extrusion width = 0.68mm
; first layer extrusion width = 0.60mm

G21 ; set units to millimeters
M107
M104 S208 ; set temperature
G28 X0 Y0  
G29
M109 S208 ; wait for temperature to be reached
G90 ; use absolute coordinates
G92 E0
M82 ; use absolute distances for extrusion
G1 F1800.000 E-1.00000
G92 E0
G1 Z0.300 F4200.000
G1 X13.244 Y30.783
G1 F1800.000 E1.00000
G1 X13.914 Y30.503 F1800.000 E1.05045
G1 X14.534 Y30.273 E1.09640
G1 X15.504 Y30.033 E1.16583
G1 X16.154 Y29.943 E1.21143
G1 X33.564 Y29.063 E2.42265
G1 X80.994 Y28.743 E5.71826
G1 X137.054 Y28.793 E9.61343
G1 X138.024 Y28.853 E9.68095
G1 X138.334 Y28.893 E9.70267
G1 X139.614 Y29.173 E9.79371
G1 X140.134 Y29.333 E9.83151
G1 X141.304 Y29.803 E9.91912
G1 X141.544 Y29.923 E9.93776
G1 X142.164 Y30.263 E9.98690
G1 X142.744 Y30.663 E10.03585
G1 X143.284 Y31.113 E10.08469
G1 X144.194 Y32.023 E10.17411
G1 X144.424 Y32.293 E10.19875
G1 X144.644 Y32.563 E10.22295
G1 X145.044 Y33.143 E10.27191
G1 X145.384 Y33.763 E10.32104
G1 X145.504 Y34.003 E10.33968
G1 X145.974 Y35.173 E10.42729
G1 X146.264 Y36.123 E10.49630
G1 X146.434 Y36.823 E10.54636
G1 X146.534 Y37.543 E10.59686
G1 X146.564 Y38.263 E10.64693
G1 X146.564 Y123.263 E16.55291
G1 X146.544 Y123.893 E16.59670
G1 X146.464 Y124.523 E16.64083
G1 X146.404 Y124.833 E16.66277
G1 X146.334 Y125.143 E16.68485
G1 X145.914 Y126.543 E16.78641
G1 X145.624 Y127.293 E16.84228
G1 X145.224 Y128.083 E16.90380
G1 X145.044 Y128.393 E16.92871
G1 X144.644 Y128.973 E16.97766
G1 X144.194 Y129.513 E17.02651
G1 X143.284 Y130.423 E17.11592
G1 X143.014 Y130.653 E17.14057
G1 X142.744 Y130.873 E17.16477
G1 X142.164 Y131.273 E17.21372
G1 X141.544 Y131.613 E17.26285
G1 X141.304 Y131.733 E17.28150
G1 X140.134 Y132.203 E17.36910
G1 X139.184 Y132.493 E17.43812
G1 X138.484 Y132.663 E17.48817
G1 X137.764 Y132.763 E17.53868
G1 X137.044 Y132.793 E17.58875
G1 X80.664 Y132.703 E21.50615
G1 X16.934 Y132.543 E25.93425
G1 X16.314 Y132.513 E25.97738
G1 X15.694 Y132.443 E26.02074
G1 X14.774 Y132.233 E26.08630
G1 X13.434 Y131.733 E26.18568
G1 X12.814 Y131.463 E26.23267
G1 X12.204 Y131.133 E26.28086
G1 X11.644 Y130.753 E26.32788
G1 X11.364 Y130.543 E26.35220
G1 X10.794 Y130.033 E26.40534
G1 X10.364 Y129.583 E26.44859
G1 X9.804 Y128.863 E26.51196
G1 X9.324 Y128.073 E26.57619
G1 X8.764 Y126.823 E26.67136
G1 X8.514 Y126.153 E26.72105
G1 X8.414 Y125.813 E26.74568
G1 X8.254 Y125.113 E26.79557
G1 X8.204 Y124.753 E26.82082
G1 X8.134 Y123.723 E26.89255
G1 X8.144 Y38.643 E32.80408
G1 X8.164 Y38.023 E32.84719
G1 X8.244 Y37.403 E32.89062
G1 X8.364 Y36.793 E32.93382
G1 X8.444 Y36.493 E32.95539
G1 X8.644 Y35.913 E32.99802
G1 X9.064 Y34.923 E33.07274
G1 X9.324 Y34.373 E33.11501
G1 X9.634 Y33.843 E33.15767
G1 X9.984 Y33.333 E33.20065
G1 X10.364 Y32.863 E33.24265
G1 X10.794 Y32.413 E33.28589
G1 X11.344 Y31.923 E33.33707
G1 X11.854 Y31.543 E33.38127
G1 X12.394 Y31.203 E33.42560
G1 X13.168 Y30.817 E33.48568
G1 X13.464 Y31.303 F4200.000
G1 X14.414 Y30.903 F1800.000 E33.55730
G1 X14.704 Y30.803 E33.57861
G1 X15.304 Y30.643 E33.62176
G1 X15.604 Y30.583 E33.64302
G1 X15.904 Y30.533 E33.66415
G1 X16.514 Y30.473 E33.70674
G1 X33.594 Y29.613 E34.89499
G1 X80.994 Y29.303 E38.18851
G1 X137.054 Y29.353 E42.08368
G1 X137.954 Y29.403 E42.14631
G1 X138.264 Y29.443 E42.16802
G1 X139.444 Y29.703 E42.25198
G1 X139.964 Y29.863 E42.28978
G1 X141.054 Y30.303 E42.37146
G1 X141.584 Y30.573 E42.41278
G1 X142.144 Y30.913 E42.45830
G1 X142.664 Y31.313 E42.50389
G1 X142.904 Y31.523 E42.52605
G1 X143.784 Y32.403 E42.61252
G1 X143.994 Y32.643 E42.63468
G1 X144.394 Y33.163 E42.68026
G1 X144.734 Y33.723 E42.72578
G1 X145.004 Y34.253 E42.76711
G1 X145.444 Y35.343 E42.84878
G1 X145.604 Y35.863 E42.88658
G1 X145.814 Y36.603 E42.94003
G1 X145.884 Y36.933 E42.96347
G1 X146.004 Y37.933 E43.03345
G1 X146.004 Y123.603 E48.98598
G1 X145.934 Y124.293 E49.03416
G1 X145.804 Y124.963 E49.08159
G1 X145.384 Y126.373 E49.18381
G1 X145.114 Y127.063 E49.23529
G1 X144.734 Y127.813 E49.29371
G1 X144.394 Y128.373 E49.33923
G1 X143.994 Y128.893 E49.38481
G1 X143.784 Y129.133 E49.40697
G1 X142.904 Y130.013 E49.49344
G1 X142.664 Y130.223 E49.51560
G1 X142.144 Y130.623 E49.56118
G1 X141.584 Y130.963 E49.60670
G1 X141.054 Y131.233 E49.64803
G1 X139.964 Y131.673 E49.72971
G1 X139.444 Y131.833 E49.76751
G1 X138.704 Y132.043 E49.82096
G1 X138.374 Y132.113 E49.84440
G1 X137.374 Y132.233 E49.91438
G1 X80.664 Y132.143 E53.85471
G1 X16.614 Y131.983 E58.30505
G1 X15.644 Y131.863 E58.37296
G1 X15.004 Y131.713 E58.41863
G1 X14.384 Y131.513 E58.46390
G1 X13.634 Y131.223 E58.51977
G1 X13.054 Y130.963 E58.56393
G1 X12.494 Y130.653 E58.60840
G1 X11.974 Y130.303 E58.65196
G1 X11.384 Y129.823 E58.70480
G1 X10.734 Y129.153 E58.76966
G1 X10.534 Y128.913 E58.79137
G1 X10.164 Y128.403 E58.83515
G1 X9.844 Y127.873 E58.87817
G1 X9.704 Y127.593 E58.89992
G1 X9.274 Y126.603 E58.97491
G1 X8.944 Y125.663 E59.04414
G1 X8.864 Y125.343 E59.06705
G1 X8.754 Y124.683 E59.11354
G1 X8.694 Y123.723 E59.18038
G1 X8.704 Y38.323 E65.11414
G1 X8.724 Y38.003 E65.13642
G1 X8.814 Y37.373 E65.18064
G1 X8.954 Y36.743 E65.22548
G1 X9.154 Y36.133 E65.27009
G1 X9.704 Y34.853 E65.36688
G1 X9.844 Y34.573 E65.38864
G1 X10.164 Y34.043 E65.43165
G1 X10.344 Y33.783 E65.45363
G1 X10.734 Y33.293 E65.49714
G1 X11.154 Y32.843 E65.53991
G1 X11.474 Y32.543 E65.57039
G1 X12.004 Y32.123 E65.61737
G1 X12.274 Y31.933 E65.64031
G1 X12.854 Y31.583 E65.68738
G1 X13.387 Y31.335 E65.72821
G1 X13.674 Y31.813 F4200.000
G1 X14.644 Y31.413 F1800.000 E65.80112
G1 X15.264 Y31.223 E65.84617
G1 X15.904 Y31.103 E65.89142
G1 X16.544 Y31.033 E65.93615
G1 X33.914 Y30.163 E67.14457
G1 X81.004 Y29.853 E70.41655
G1 X137.054 Y29.903 E74.31102
G1 X137.884 Y29.963 E74.36884
G1 X138.194 Y30.003 E74.39055
G1 X139.284 Y30.233 E74.46796
G1 X139.804 Y30.393 E74.50576
G1 X140.804 Y30.803 E74.58086
G1 X141.044 Y30.923 E74.59950
G1 X141.574 Y31.213 E74.64148
G1 X142.074 Y31.553 E74.68349
G1 X142.754 Y32.143 E74.74604
G1 X143.164 Y32.553 E74.78633
G1 X143.564 Y33.003 E74.82816
G1 X143.934 Y33.483 E74.87027
G1 X144.094 Y33.733 E74.89090
G1 X144.384 Y34.263 E74.93287
G1 X144.504 Y34.503 E74.95152
G1 X144.914 Y35.503 E75.02661
G1 X145.194 Y36.433 E75.09410
G1 X145.274 Y36.733 E75.11567
G1 X145.384 Y37.343 E75.15874
G1 X145.424 Y37.643 E75.17977
G1 X145.454 Y38.263 E75.22290
G1 X145.454 Y123.263 E81.12887
G1 X145.424 Y123.893 E81.17269
G1 X145.334 Y124.523 E81.21691
G1 X145.264 Y124.833 E81.23899
G1 X144.864 Y126.193 E81.33749
G1 X144.604 Y126.833 E81.38549
G1 X144.244 Y127.543 E81.44080
G1 X143.934 Y128.053 E81.48227
G1 X143.754 Y128.303 E81.50367
G1 X143.164 Y128.983 E81.56623
G1 X142.754 Y129.393 E81.60651
G1 X142.304 Y129.793 E81.64835
G1 X141.824 Y130.163 E81.69046
G1 X141.574 Y130.323 E81.71108
G1 X141.044 Y130.613 E81.75306
G1 X140.804 Y130.733 E81.77170
G1 X139.804 Y131.143 E81.84680
G1 X138.874 Y131.423 E81.91428
G1 X138.574 Y131.503 E81.93585
G1 X137.964 Y131.613 E81.97892
G1 X137.664 Y131.653 E81.99995
G1 X137.044 Y131.683 E82.04308
G1 X80.664 Y131.593 E85.96048
G1 X16.934 Y131.433 E90.38859
G1 X16.334 Y131.403 E90.43033
G1 X16.044 Y131.363 E90.45067
G1 X15.454 Y131.253 E90.49237
G1 X14.874 Y131.093 E90.53417
G1 X13.844 Y130.703 E90.61070
G1 X13.304 Y130.463 E90.65176
G1 X12.784 Y130.183 E90.69279
G1 X12.304 Y129.853 E90.73327
G1 X11.754 Y129.403 E90.78264
G1 X11.154 Y128.793 E90.84209
G1 X10.964 Y128.563 E90.86282
G1 X10.634 Y128.103 E90.90216
G1 X10.474 Y127.853 E90.92278
G1 X10.204 Y127.353 E90.96226
G1 X9.674 Y126.103 E91.05660
G1 X9.484 Y125.513 E91.09967
G1 X9.304 Y124.613 E91.16344
G1 X9.244 Y123.723 E91.22542
G1 X9.254 Y38.643 E97.13695
G1 X9.314 Y37.763 E97.19824
G1 X9.494 Y36.893 E97.25997
G1 X9.674 Y36.333 E97.30084
G1 X9.784 Y36.063 E97.32110
G1 X10.204 Y35.093 E97.39454
G1 X10.474 Y34.593 E97.43402
G1 X10.794 Y34.113 E97.47411
G1 X11.154 Y33.653 E97.51469
G1 X11.344 Y33.443 E97.53437
G1 X11.844 Y32.963 E97.58253
G1 X12.584 Y32.393 E97.64743
G1 X13.114 Y32.083 E97.69009
G1 X13.598 Y31.848 E97.72748
G1 F1800.000 E96.72748
G92 E0
G1 X80.582 Y38.524 F4200.000
G1 F1800.000 E1.00000
G1 X80.791 Y37.965 F1800.000 E1.04151
G1 X81.519 Y37.851 E1.09265
G1 X81.545 Y37.810 E1.09604
G1 X100.152 Y37.893 E2.38891
G1 X100.152 Y39.165 E2.47735
G1 X117.937 Y39.165 E3.71312
G1 X117.937 Y37.890 E3.80170
G1 X125.072 Y37.848 E4.29742
G1 X136.997 Y37.863 E5.12602
G1 X137.197 Y37.947 E5.14109
G1 X137.387 Y38.239 E5.16529
G1 X137.467 Y38.746 E5.20099
G1 X137.507 Y38.773 E5.20435
G1 X137.508 Y123.021 E11.05809
G1 X137.298 Y123.581 E11.09965
G1 X136.583 Y123.694 E11.14991
G1 X136.555 Y123.736 E11.15342
G1 X136.015 Y123.736 E11.19094
G1 X80.894 Y123.603 E15.02088
G1 X80.702 Y123.307 E15.04543
G1 X80.624 Y122.811 E15.08028
G1 X80.582 Y122.783 E15.08376
G1 X80.582 Y38.608 E20.93244
G1 X80.025 Y38.424 F4200.000
G1 X80.283 Y37.733 F1800.000 E20.98368
G1 X80.281 Y37.659 E20.98887
G1 X80.476 Y37.464 E21.00801
G1 X81.187 Y37.339 E21.05813
G1 X81.243 Y37.253 E21.06526
G1 X100.709 Y37.338 E22.41785
G1 X100.709 Y38.608 E22.50612
G1 X117.380 Y38.608 E23.66447
G1 X117.380 Y37.337 E23.75282
G1 X125.070 Y37.291 E24.28715
G1 X136.999 Y37.306 E25.11597
G1 X137.147 Y37.322 E25.12634
G1 X137.332 Y37.400 E25.14028
G1 X137.537 Y37.446 E25.15484
G1 X137.919 Y38.035 E25.20361
G1 X137.979 Y38.415 E25.23031
G1 X138.064 Y38.470 E25.23742
G1 X138.065 Y123.122 E31.11916
G1 X137.806 Y123.812 E31.17040
G1 X137.808 Y123.887 E31.17559
G1 X137.613 Y124.082 E31.19475
G1 X136.911 Y124.206 E31.24432
G1 X136.853 Y124.292 E31.25155
G1 X80.998 Y124.161 E35.13249
G1 X80.620 Y124.204 E35.15889
G1 X80.170 Y123.511 E35.21635
G1 X80.111 Y123.139 E35.24251
G1 X80.025 Y123.081 E35.24973
G1 X80.025 Y38.507 E41.12607
G1 X79.467 Y38.323 F4200.000
G1 X79.724 Y37.639 F1800.000 E41.17680
G1 X79.720 Y37.501 E41.18645
G1 X79.791 Y37.361 E41.19729
G1 X80.134 Y37.019 E41.23097
G1 X80.305 Y36.931 E41.24434
G1 X80.855 Y36.827 E41.28323
G1 X80.909 Y36.743 E41.29016
G1 X81.073 Y36.696 E41.30201
G1 X101.266 Y36.783 E42.70509
G1 X101.266 Y38.051 E42.79318
G1 X116.823 Y38.051 E43.87412
G1 X116.823 Y36.783 E43.96225
G1 X125.069 Y36.733 E44.53519
G1 X137.029 Y36.749 E45.36622
G1 X137.287 Y36.777 E45.38424
G1 X137.503 Y36.867 E45.40046
G1 X137.785 Y36.931 E45.42055
G1 X137.956 Y37.019 E45.43391
G1 X138.282 Y37.345 E45.46594
G1 X138.179 Y37.412 E45.47451
G1 X138.451 Y37.831 E45.50925
G1 X138.490 Y38.083 E45.52694
G1 X138.574 Y38.137 E45.53387
G1 X138.622 Y38.301 E45.54572
G1 X138.622 Y123.222 E51.44623
G1 X138.366 Y123.906 E51.49697
G1 X138.370 Y124.045 E51.50661
G1 X138.299 Y124.184 E51.51745
G1 X137.956 Y124.527 E51.55114
G1 X137.784 Y124.614 E51.56452
G1 X137.238 Y124.718 E51.60317
G1 X137.182 Y124.801 E51.61011
G1 X137.017 Y124.849 E51.62211
G1 X81.029 Y124.718 E55.51224
G1 X80.686 Y124.757 E55.53621
G1 X80.560 Y124.743 E55.54507
G1 X80.134 Y124.527 E55.57828
G1 X79.805 Y124.199 E55.61054
G1 X79.908 Y124.130 E55.61912
G1 X79.638 Y123.714 E55.65353
G1 X79.599 Y123.466 E55.67101
G1 X79.516 Y123.410 E55.67794
G1 X79.468 Y123.245 E55.68993
G1 X79.467 Y38.407 E61.58464
G1 X80.002 Y38.167 F4200.000
G1 F1800.000 E60.58464
G92 E0
G1 X24.234 Y64.449 F4200.000
G1 F1800.000 E1.00000
G1 X24.234 Y118.006 F1800.000 E4.72125
G1 X16.677 Y118.006 E5.24634
G1 X16.677 Y64.449 E8.96759
G1 X24.150 Y64.449 E9.48687
G1 X24.791 Y64.449 F4200.000
G1 F1800.000 E8.48687
G92 E0
G1 X42.910 Y82.670 F4200.000
G1 F1800.000 E1.00000
G1 X43.886 Y82.801 F1800.000 E1.06844
G1 X51.740 Y85.325 E1.64160
G1 X53.213 Y82.947 E1.83595
G1 X53.953 Y82.367 E1.90129
G1 X54.734 Y82.972 E1.96991
G1 X59.649 Y89.681 E2.54779
G1 X63.017 Y88.307 E2.80056
G1 X63.436 Y89.502 E2.88860
G1 X63.472 Y97.830 E3.46726
G1 X66.116 Y98.476 E3.65639
G1 X67.045 Y98.951 E3.72888
G1 X66.595 Y99.947 E3.80486
G1 X61.764 Y106.662 E4.37960
G1 X63.510 Y108.717 E4.56694
G1 X64.028 Y109.667 E4.64217
G1 X63.022 Y110.219 E4.72190
G1 X55.188 Y112.807 E5.29517
G1 X55.395 Y115.535 E5.48532
G1 X55.212 Y116.472 E5.55163
G1 X54.128 Y116.430 E5.62701
G1 X46.212 Y113.923 E6.20396
G1 X44.105 Y117.315 E6.48144
G1 X38.354 Y109.568 E7.15181
G1 X34.896 Y110.986 E7.41152
G1 X34.582 Y109.714 E7.50257
G1 X34.546 Y101.423 E8.07865
G1 X31.926 Y100.787 E8.26594
G1 X30.960 Y100.361 E8.33928
G1 X31.423 Y99.274 E8.42141
G1 X36.265 Y92.579 E8.99546
G1 X33.779 Y89.627 E9.26367
G1 X34.979 Y88.996 E9.35785
G1 X42.824 Y86.406 E9.93188
G1 X42.622 Y83.644 E10.12428
G1 X42.886 Y82.750 E10.18911
G1 F1800.000 E9.18911
G92 E0
G1 X51.996 Y95.913 F4200.000
G1 F1800.000 E1.00000
G1 X52.525 Y95.763 F1800.000 E1.03821
G1 X52.761 Y95.791 E1.05465
G1 X65.921 Y99.001 E1.99589
G1 X66.319 Y99.205 E2.02697
G1 X66.111 Y99.667 E2.06221
G1 X61.230 Y106.450 E2.64283
G1 X54.551 Y98.562 E3.36103
G1 X53.861 Y98.029 E3.42160
G1 X53.708 Y98.222 E3.43869
G1 X53.685 Y98.065 E3.44972
G1 X52.987 Y98.147 E3.49856
G1 X50.087 Y99.111 E3.71091
G1 X49.814 Y98.738 E3.74303
G1 X51.627 Y96.234 E3.95785
G1 X51.933 Y95.968 E3.98601
G1 X52.052 Y95.366 F4200.000
G1 X52.178 Y95.493
G1 X51.896 Y95.601 F1800.000 E4.00700
G1 X51.347 Y96.099 E4.05851
G1 X49.598 Y98.555 E4.26797
G1 X49.159 Y98.417 E4.29993
G1 X49.127 Y95.348 E4.51321
G1 X49.213 Y94.910 E4.54416
G1 X49.427 Y94.557 E4.57288
G1 X49.799 Y94.302 E4.60424
G1 X62.685 Y89.044 E5.57124
G1 X62.880 Y89.598 E5.61207
G1 X62.915 Y97.942 E6.19178
G1 X52.901 Y95.490 E6.90814
G1 X52.261 Y95.492 E6.95260
G1 X52.095 Y95.783 F4200.000
G1 F1800.000 E5.95260
G92 E0
G1 X51.084 Y93.433 F4200.000
G1 F1800.000 E1.00000
G1 X49.726 Y93.990 F1800.000 E1.10195
G1 X49.275 Y94.284 E1.13938
G1 X49.005 Y94.651 E1.17100
G1 X48.863 Y95.045 E1.20010
G1 X48.820 Y95.391 E1.22435
G1 X48.852 Y98.407 E1.43393
G1 X48.413 Y98.553 E1.46606
G1 X46.596 Y96.077 E1.67949
G1 X46.377 Y95.493 E1.72280
G1 X46.480 Y94.870 E1.76667
G1 X53.634 Y83.325 E2.71041
G1 X53.955 Y83.073 E2.73873
G1 X54.331 Y83.364 E2.77173
G1 X59.251 Y90.081 E3.35026
G1 X51.161 Y93.401 E3.95789
G1 X51.009 Y93.985 F4200.000
G1 F1800.000 E2.95789
G92 E0
G1 X46.371 Y94.502 F4200.000
G1 F1800.000 E1.00000
G1 X46.343 Y94.494 F1800.000 E1.00200
G1 X46.119 Y95.064 E1.04452
G1 X46.083 Y95.492 E1.07433
G1 X46.169 Y95.910 E1.10399
G1 X46.386 Y96.311 E1.13567
G1 X48.171 Y98.741 E1.34520
G1 X47.901 Y99.116 E1.37726
G1 X44.994 Y98.178 E1.58952
G1 X44.499 Y97.897 E1.62901
G1 X44.095 Y97.367 E1.67533
G1 X43.906 Y97.493 E1.69118
G1 X44.087 Y97.808 E1.71642
G1 X44.046 Y97.865 E1.72133
G1 X44.586 Y98.349 E1.77169
G1 X44.612 Y98.325 E1.77416
G1 X44.928 Y98.475 E1.79848
G1 X47.797 Y99.400 E2.00796
G1 X47.799 Y99.859 E2.03988
G1 X44.856 Y100.830 E2.25517
G1 X44.247 Y100.924 E2.29804
G1 X43.688 Y100.530 E2.34549
G1 X34.651 Y89.798 E3.32037
G1 X35.197 Y89.511 E3.36322
G1 X43.116 Y86.896 E3.94267
G1 X43.804 Y95.975 E4.57530
G1 X44.081 Y95.954 E4.59458
G1 X43.185 Y83.705 E5.44797
G1 X43.309 Y83.285 E5.47837
G1 X43.763 Y83.347 E5.51021
G1 X51.690 Y85.894 E6.08876
G1 X46.414 Y94.431 E6.78606
G1 X46.360 Y94.529 F4200.000
G1 F1800.000 E5.78606
G92 E0
G1 X50.191 Y99.394 F4200.000
G1 F1800.000 E1.00000
G1 X53.089 Y98.428 F1800.000 E1.21225
G1 X53.722 Y98.318 E1.25692
G1 X53.713 Y98.255 E1.26131
G1 X54.293 Y98.725 E1.31317
G1 X63.048 Y109.034 E2.25290
G1 X63.273 Y109.446 E2.28553
G1 X62.799 Y109.706 E2.32309
G1 X54.599 Y112.414 E2.92310
G1 X54.834 Y115.503 E3.13829
G1 X54.757 Y115.897 E3.16620
G1 X54.225 Y115.876 E3.20320
G1 X46.293 Y113.364 E3.78130
G1 X51.586 Y104.763 E4.48301
G1 X51.616 Y104.773 E4.48521
G1 X51.875 Y104.166 E4.53109
G1 X51.882 Y104.096 E4.53596
G1 X51.981 Y104.069 E4.54314
G1 X51.914 Y103.756 E4.56538
G1 X51.934 Y103.544 E4.58018
G1 X51.866 Y103.532 E4.58501
G1 X51.826 Y103.348 E4.59806
G1 X51.536 Y102.839 E4.63876
